src/assets/icon/company/Yoy.svg

<svg width="200" height="80" viewBox="0 0 200 80" fill="none" xmlns="http://www.w3.org/2000/svg">
<path fill-rule="evenodd" clip-rule="evenodd" d="M85.6172 18.0426C85.6172 16.9166 86.5409 16 87.6759 16C88.8107 16 89.7345 16.9166 89.7345 18.0426C89.7345 23.3586 94.6173 28.2033 99.9751 28.2033C105.333 28.2033 110.216 23.3586 110.216 18.0426C110.216 16.9166 111.14 16 112.274 16C113.409 16 114.333 16.9166 114.333 18.0426C114.333 25.6107 107.629 32.2623 100.002 32.2623C92.3739 32.2623 85.6172 25.6107 85.6172 18.0426Z" fill="white"/>
<path d="M73.5539 21.7861L75.3486 23.5668C76.6418 24.85 76.6418 26.945 75.3486 28.2282L69.4364 34.0941C68.8558 34.6702 69.3837 35.613 70.1755 35.4559L82.7123 32.9157C83.7945 32.7062 84.9294 33.0205 85.7212 33.8061L88.3341 36.3986C89.6274 37.6818 89.6274 39.7768 88.3341 41.0599L73.4482 55.8296C72.155 57.1128 70.0435 57.1128 68.7502 55.8296L66.9555 54.0489C65.6622 52.7657 65.6622 50.6707 66.9555 49.3875L69.1725 47.1878C70.8353 45.538 69.3309 42.7359 67.0083 43.2073L59.6181 44.7C58.536 44.9095 57.4011 44.5953 56.6093 43.8096L53.97 41.1909C52.6767 39.9077 52.6767 37.8127 53.97 36.5296L68.8558 21.7599C70.1491 20.4767 72.2606 20.4767 73.5539 21.7861Z" fill="white"/>
<path d="M111.693 36.4253L113.487 34.6445C114.781 33.3614 116.892 33.3614 118.185 34.6445L124.124 40.5367C124.705 41.1128 125.655 40.589 125.496 39.8035L122.936 27.3645C122.725 26.2908 123.042 25.1648 123.834 24.3791L126.447 21.7866C127.74 20.5034 129.851 20.5034 131.145 21.7866L146.03 36.5562C147.323 37.8394 147.323 39.9344 146.03 41.2176L144.236 42.9983C142.942 44.2815 140.831 44.2815 139.537 42.9983L137.347 40.8247C135.684 39.175 132.833 40.6677 133.309 42.9721L134.813 50.2522C135.025 51.3259 134.707 52.452 133.916 53.2376L131.276 55.8563C129.983 57.1395 127.872 57.1395 126.578 55.8563L111.693 41.0866C110.399 39.8035 110.399 37.7085 111.693 36.4253Z" fill="white"/>
<path d="M113.594 43.2627C112.247 41.063 110.373 39.3608 107.998 38.13C105.623 36.8992 102.957 36.2969 99.9481 36.2969C96.9657 36.2969 94.2999 36.9254 91.9245 38.13C89.5492 39.3608 87.6752 41.063 86.3291 43.2627C84.9831 45.4363 84.2969 47.924 84.2969 50.6737C84.2969 53.4234 84.9831 55.885 86.3291 58.0847C87.6752 60.2583 89.5492 61.9866 91.9245 63.2174C94.2999 64.4482 96.992 65.0506 99.9481 65.0506C102.931 65.0506 105.623 64.422 107.998 63.2174C110.373 61.9866 112.221 60.2844 113.594 58.0847C114.94 55.885 115.599 53.4234 115.599 50.6737C115.599 47.924 114.94 45.4363 113.594 43.2627ZM106.863 51.826L98.7076 59.4727C97.6783 60.4416 95.9891 59.7083 95.9891 58.3204V43.0532C95.9891 41.6653 97.6783 40.9321 98.7076 41.901L106.863 49.5477C107.549 50.1238 107.549 51.1974 106.863 51.826Z" fill="white"/>
</svg>

<svg width="200" height="80" fill="none" xmlns="http://www.w3.org/2000/svg"><path fill-rule="evenodd" clip-rule="evenodd" d="M85.617 18.043c0-1.126.924-2.043 2.059-2.043 1.135 0 2.058.917 2.058 2.043 0 5.316 4.883 10.16 10.241 10.16s10.241-4.844 10.241-10.16c0-1.126.924-2.043 2.058-2.043 1.135 0 2.059.917 2.059 2.043 0 7.568-6.704 14.22-14.331 14.22-7.628 0-14.385-6.652-14.385-14.22Z" fill="#fff"/><path d="m73.554 21.786 1.795 1.78a3.285 3.285 0 0 1 0 4.662l-5.913 5.866c-.58.576-.052 1.519.74 1.362l12.536-2.54c1.082-.21 2.217.105 3.01.89l2.612 2.593a3.285 3.285 0 0 1 0 4.66L73.448 55.83a3.348 3.348 0 0 1-4.698 0l-1.794-1.78a3.285 3.285 0 0 1 0-4.661l2.216-2.2c1.663-1.65.159-4.452-2.164-3.98l-7.39 1.492c-1.082.21-2.217-.105-3.009-.89l-2.639-2.62a3.285 3.285 0 0 1 0-4.66l14.886-14.77a3.324 3.324 0 0 1 4.698.026ZM111.693 36.425l1.794-1.78a3.348 3.348 0 0 1 4.698 0l5.939 5.892c.581.576 1.531.052 1.372-.733l-2.56-12.44a3.3 3.3 0 0 1 .898-2.985l2.613-2.592a3.348 3.348 0 0 1 4.698 0l14.885 14.77a3.286 3.286 0 0 1 0 4.66l-1.794 1.781a3.35 3.35 0 0 1-4.699 0l-2.19-2.173c-1.663-1.65-4.514-.157-4.038 2.147l1.504 7.28a3.3 3.3 0 0 1-.897 2.986l-2.64 2.618a3.348 3.348 0 0 1-4.698 0l-14.885-14.77a3.284 3.284 0 0 1 0-4.66Z" fill="#fff"/><path d="M113.594 43.263c-1.347-2.2-3.221-3.902-5.596-5.133-2.375-1.23-5.041-1.833-8.05-1.833-2.982 0-5.648.628-8.023 1.833-2.376 1.23-4.25 2.933-5.596 5.133-1.346 2.173-2.032 4.661-2.032 7.41 0 2.75.686 5.212 2.032 7.412 1.346 2.173 3.22 3.902 5.596 5.132 2.375 1.231 5.067 1.834 8.023 1.834 2.983 0 5.675-.629 8.05-1.834 2.375-1.23 4.223-2.933 5.596-5.132 1.346-2.2 2.005-4.662 2.005-7.411 0-2.75-.659-5.238-2.005-7.411Zm-6.731 8.563-8.155 7.647c-1.03.969-2.719.235-2.719-1.153V43.053c0-1.388 1.69-2.12 2.719-1.152l8.155 7.647c.686.576.686 1.65 0 2.278Z" fill="#fff"/></svg>
